public/assets/unparalled-quotes.svg

<svg fill="none" height="246" viewBox="0 0 296 246" width="296" xmlns="http://www.w3.org/2000/svg" xmlns:xlink="http://www.w3.org/1999/xlink"><filter id="a" color-interpolation-filters="sRGB" filterUnits="userSpaceOnUse" height="682" width="682" x="-231" y="-191"><feFlood flood-opacity="0" result="BackgroundImageFix"/><feBlend in="SourceGraphic" in2="BackgroundImageFix" mode="normal" result="shape"/><feGaussianBlur result="effect1_foregroundBlur_244_22030" stdDeviation="128"/></filter><linearGradient id="b"><stop offset=".15" stop-color="#2aabee"/><stop offset="1" stop-color="#0ccfcf"/></linearGradient><linearGradient id="c" gradientUnits="userSpaceOnUse" x1="25.1549" x2="194.845" xlink:href="#b" y1="144.87" y2="155.13"/><linearGradient id="d" gradientUnits="userSpaceOnUse" x1="56.1668" x2="229.874" xlink:href="#b" y1="179.082" y2="219.975"/><linearGradient id="e"><stop offset="0" stop-color="#2c41ff"/><stop offset=".593089" stop-color="#2aabee"/><stop offset="1" stop-color="#0ccfcf"/></linearGradient><linearGradient id="f" gradientUnits="userSpaceOnUse" x1="231.55" x2="104.494" xlink:href="#e" y1="178.28" y2="121.256"/><linearGradient id="g" gradientUnits="userSpaceOnUse" x1="243.44" x2="138.034" xlink:href="#b" y1="177.05" y2="112.84"/><linearGradient id="h" gradientUnits="userSpaceOnUse" x1="99.6145" x2="189.036" xlink:href="#b" y1="146.664" y2="164.12"/><linearGradient id="i" gradientUnits="userSpaceOnUse" x1="234.83" x2="107.774" xlink:href="#e" y1="166.8" y2="109.776"/><linearGradient id="j" gradientUnits="userSpaceOnUse" x1="246.72" x2="141.314" xlink:href="#b" y1="165.57" y2="101.36"/><linearGradient id="k" gradientUnits="userSpaceOnUse" x1="102.895" x2="192.316" xlink:href="#b" y1="135.184" y2="152.64"/><linearGradient id="l" gradientUnits="userSpaceOnUse" x1="231.55" x2="104.494" xlink:href="#e" y1="156.96" y2="99.9359"/><linearGradient id="m" gradientUnits="userSpaceOnUse" x1="243.44" x2="138.034" xlink:href="#b" y1="155.73" y2="91.5197"/><linearGradient id="n" gradientUnits="userSpaceOnUse" x1="99.6145" x2="189.036" xlink:href="#b" y1="125.344" y2="142.8"/><linearGradient id="o" gradientUnits="userSpaceOnUse" x1="233.19" x2="106.134" xlink:href="#e" y1="143.02" y2="85.9959"/><linearGradient id="p" gradientUnits="userSpaceOnUse" x1="245.08" x2="139.674" xlink:href="#b" y1="141.79" y2="77.5797"/><linearGradient id="q" gradientUnits="userSpaceOnUse" x1="101.254" x2="190.676" xlink:href="#b" y1="111.404" y2="128.86"/><linearGradient id="r"><stop offset="0" stop-color="#fff"/><stop offset="1" stop-color="#fff" stop-opacity=".5"/></linearGradient><linearGradient id="s" gradientUnits="userSpaceOnUse" x1="85" x2="85" xlink:href="#r" y1="86" y2="110"/><linearGradient id="t" gradientUnits="userSpaceOnUse" x1="212" x2="212" xlink:href="#r" y1="86" y2="102"/><linearGradient id="u" gradientUnits="userSpaceOnUse" x1="180.022" x2="203.978" xlink:href="#b" y1="75.2758" y2="76.7242"/><g filter="url(#a)" opacity=".7"><circle cx="110" cy="150" fill="url(#c)" r="85"/></g><ellipse cx="147.5" cy="180.5" fill="url(#d)" opacity=".5" rx="91.5" ry="23.5"/><path d="m145.86 175c29.663 0 53.71-8.627 53.71-19.27v-8.61h-107.42v8.61c0 10.643 24.047 19.27 53.71 19.27z" fill="url(#f)"/><ellipse cx="145.86" cy="147.53" fill="url(#g)" rx="53.71" ry="19.27"/><ellipse cx="145.86" cy="147.53" fill="url(#h)" rx="46.33" ry="14.35"/><path d="m191.19 147.53c0 1.511-.991 3.138-3.232 4.779-2.219 1.625-5.495 3.131-9.634 4.413-8.264 2.559-19.742 4.158-32.464 4.158s-24.2-1.599-32.464-4.158c-4.139-1.282-7.415-2.788-9.634-4.413-2.241-1.641-3.232-3.268-3.232-4.779s.991-3.138 3.232-4.779c2.219-1.625 5.495-3.131 9.634-4.413 8.264-2.559 19.742-4.158 32.464-4.158s24.2 1.599 32.464 4.158c4.139 1.282 7.415 2.788 9.634 4.413 2.241 1.641 3.232 3.268 3.232 4.779z" stroke="#fff" stroke-opacity=".05" stroke-width="2"/><path d="m149.14 163.52c29.663 0 53.71-8.627 53.71-19.27v-8.61h-107.4199v8.61c0 10.643 24.0469 19.27 53.7099 19.27z" fill="url(#i)"/><ellipse cx="149.14" cy="136.05" fill="url(#j)" rx="53.71" ry="19.27"/><ellipse cx="149.14" cy="136.05" fill="url(#k)" rx="46.33" ry="14.35"/><path d="m194.47 136.05c0 1.511-.991 3.138-3.232 4.779-2.219 1.625-5.495 3.131-9.634 4.413-8.264 2.56-19.742 4.158-32.464 4.158s-24.2-1.598-32.464-4.158c-4.139-1.282-7.415-2.788-9.634-4.413-2.241-1.641-3.232-3.268-3.232-4.779s.991-3.138 3.232-4.779c2.219-1.625 5.495-3.131 9.634-4.413 8.264-2.559 19.742-4.158 32.464-4.158s24.2 1.599 32.464 4.158c4.139 1.282 7.415 2.788 9.634 4.413 2.241 1.641 3.232 3.268 3.232 4.779z" stroke="#fff" stroke-opacity=".05" stroke-width="2"/><path d="m145.86 153.68c29.663 0 53.71-8.627 53.71-19.27v-8.61h-107.42v8.61c0 10.643 24.047 19.27 53.71 19.27z" fill="url(#l)"/><ellipse cx="145.86" cy="126.21" fill="url(#m)" rx="53.71" ry="19.27"/><ellipse cx="145.86" cy="126.21" fill="url(#n)" rx="46.33" ry="14.35"/><path d="m191.19 126.21c0 1.511-.991 3.138-3.232 4.779-2.219 1.625-5.495 3.131-9.634 4.413-8.264 2.559-19.742 4.158-32.464 4.158s-24.2-1.599-32.464-4.158c-4.139-1.282-7.415-2.788-9.634-4.413-2.241-1.641-3.232-3.268-3.232-4.779s.991-3.138 3.232-4.779c2.219-1.625 5.495-3.131 9.634-4.413 8.264-2.56 19.742-4.158 32.464-4.158s24.2 1.598 32.464 4.158c4.139 1.282 7.415 2.788 9.634 4.413 2.241 1.641 3.232 3.268 3.232 4.779z" stroke="#fff" stroke-opacity=".05" stroke-width="2"/><path d="m147.5 139.74c29.663 0 53.71-8.627 53.71-19.27v-8.61h-107.42v8.61c0 10.643 24.047 19.27 53.71 19.27z" fill="url(#o)"/><ellipse cx="147.5" cy="112.27" fill="url(#p)" rx="53.71" ry="19.27"/><ellipse cx="147.5" cy="112.27" fill="url(#q)" rx="46.33" ry="14.35"/><g stroke="#fff"><path d="m192.83 112.27c0 1.511-.991 3.138-3.232 4.779-2.219 1.625-5.495 3.131-9.634 4.413-8.264 2.559-19.742 4.158-32.464 4.158s-24.2-1.599-32.464-4.158c-4.139-1.282-7.415-2.788-9.634-4.413-2.241-1.641-3.232-3.268-3.232-4.779s.991-3.138 3.232-4.779c2.219-1.625 5.495-3.131 9.634-4.413 8.264-2.56 19.742-4.158 32.464-4.158s24.2 1.598 32.464 4.158c4.139 1.282 7.415 2.788 9.634 4.413 2.241 1.641 3.232 3.268 3.232 4.779z" stroke-opacity=".05" stroke-width="2"/><path d="m149.405 106.94 24.745 5.233-24.745 5.427m0-10.66-7.698 5.233 7.698 5.427m0-10.66 8.798 5.33-8.798 5.33" stroke-linecap="round" stroke-linejoin="round" stroke-opacity=".48"/><path d="m144.024 117.6-23.174-5.233 23.174-5.427-7.21 5.33z" stroke-linecap="round" stroke-linejoin="round" stroke-opacity=".48"/></g><path d="m85 86 2.1213 9.8787 9.8787 2.1213-9.8787 2.121-2.1213 9.879-2.1213-9.879-9.8787-2.121 9.8787-2.1213z" fill="url(#s)"/><path d="m212 86 1.414 6.5858 6.586 1.4142-6.586 1.4142-1.414 6.5858-1.414-6.5858-6.586-1.4142 6.586-1.4142z" fill="url(#t)"/><path d="m192 64 2.121 9.8787 9.879 2.1213-9.879 2.1213-2.121 9.8787-2.121-9.8787-9.879-2.1213 9.879-2.1213z" fill="url(#u)"/></svg>

<svg width="296" height="246" viewBox="0 0 296 246" fill="none" xmlns="http://www.w3.org/2000/svg">
<g style="mix-blend-mode:hard-light" opacity="0.7" filter="url(#filter0_f_244_22030)">
<circle cx="110" cy="150" r="85" fill="url(#paint0_linear_244_22030)"/>
</g>
<g style="mix-blend-mode:multiply" opacity="0.5">
<ellipse cx="147.5" cy="180.5" rx="91.5" ry="23.5" fill="url(#paint1_linear_244_22030)"/>
</g>
<path d="M145.86 175C175.523 175 199.57 166.373 199.57 155.73V147.12H92.15V155.73C92.15 166.373 116.197 175 145.86 175Z" fill="url(#paint2_linear_244_22030)"/>
<ellipse cx="145.86" cy="147.53" rx="53.71" ry="19.27" fill="url(#paint3_linear_244_22030)"/>
<ellipse cx="145.86" cy="147.53" rx="46.33" ry="14.35" fill="url(#paint4_linear_244_22030)"/>
<path d="M191.19 147.53C191.19 149.041 190.199 150.668 187.958 152.309C185.739 153.934 182.463 155.44 178.324 156.722C170.06 159.281 158.582 160.88 145.86 160.88C133.138 160.88 121.66 159.281 113.396 156.722C109.257 155.44 105.981 153.934 103.762 152.309C101.521 150.668 100.53 149.041 100.53 147.53C100.53 146.019 101.521 144.392 103.762 142.751C105.981 141.126 109.257 139.62 113.396 138.338C121.66 135.779 133.138 134.18 145.86 134.18C158.582 134.18 170.06 135.779 178.324 138.338C182.463 139.62 185.739 141.126 187.958 142.751C190.199 144.392 191.19 146.019 191.19 147.53Z" stroke="white" stroke-opacity="0.05" stroke-width="2"/>
<path d="M149.14 163.52C178.803 163.52 202.85 154.893 202.85 144.25V135.64H95.4301V144.25C95.4301 154.893 119.477 163.52 149.14 163.52Z" fill="url(#paint5_linear_244_22030)"/>
<ellipse cx="149.14" cy="136.05" rx="53.71" ry="19.27" fill="url(#paint6_linear_244_22030)"/>
<ellipse cx="149.14" cy="136.05" rx="46.33" ry="14.35" fill="url(#paint7_linear_244_22030)"/>
<path d="M194.47 136.05C194.47 137.561 193.479 139.188 191.238 140.829C189.019 142.454 185.743 143.96 181.604 145.242C173.34 147.802 161.862 149.4 149.14 149.4C136.418 149.4 124.94 147.802 116.676 145.242C112.537 143.96 109.261 142.454 107.042 140.829C104.801 139.188 103.81 137.561 103.81 136.05C103.81 134.539 104.801 132.912 107.042 131.271C109.261 129.646 112.537 128.14 116.676 126.858C124.94 124.299 136.418 122.7 149.14 122.7C161.862 122.7 173.34 124.299 181.604 126.858C185.743 128.14 189.019 129.646 191.238 131.271C193.479 132.912 194.47 134.539 194.47 136.05Z" stroke="white" stroke-opacity="0.05" stroke-width="2"/>
<path d="M145.86 153.68C175.523 153.68 199.57 145.053 199.57 134.41V125.8H92.15V134.41C92.15 145.053 116.197 153.68 145.86 153.68Z" fill="url(#paint8_linear_244_22030)"/>
<ellipse cx="145.86" cy="126.21" rx="53.71" ry="19.27" fill="url(#paint9_linear_244_22030)"/>
<ellipse cx="145.86" cy="126.21" rx="46.33" ry="14.35" fill="url(#paint10_linear_244_22030)"/>
<path d="M191.19 126.21C191.19 127.721 190.199 129.348 187.958 130.989C185.739 132.614 182.463 134.12 178.324 135.402C170.06 137.961 158.582 139.56 145.86 139.56C133.138 139.56 121.66 137.961 113.396 135.402C109.257 134.12 105.981 132.614 103.762 130.989C101.521 129.348 100.53 127.721 100.53 126.21C100.53 124.699 101.521 123.072 103.762 121.431C105.981 119.806 109.257 118.3 113.396 117.018C121.66 114.458 133.138 112.86 145.86 112.86C158.582 112.86 170.06 114.458 178.324 117.018C182.463 118.3 185.739 119.806 187.958 121.431C190.199 123.072 191.19 124.699 191.19 126.21Z" stroke="white" stroke-opacity="0.05" stroke-width="2"/>
<path d="M147.5 139.74C177.163 139.74 201.21 131.113 201.21 120.47V111.86H93.79V120.47C93.79 131.113 117.837 139.74 147.5 139.74Z" fill="url(#paint11_linear_244_22030)"/>
<ellipse cx="147.5" cy="112.27" rx="53.71" ry="19.27" fill="url(#paint12_linear_244_22030)"/>
<ellipse cx="147.5" cy="112.27" rx="46.33" ry="14.35" fill="url(#paint13_linear_244_22030)"/>
<path d="M192.83 112.27C192.83 113.781 191.839 115.408 189.598 117.049C187.379 118.674 184.103 120.18 179.964 121.462C171.7 124.021 160.222 125.62 147.5 125.62C134.778 125.62 123.3 124.021 115.036 121.462C110.897 120.18 107.621 118.674 105.402 117.049C103.161 115.408 102.17 113.781 102.17 112.27C102.17 110.759 103.161 109.132 105.402 107.491C107.621 105.866 110.897 104.36 115.036 103.078C123.3 100.518 134.778 98.92 147.5 98.92C160.222 98.92 171.7 100.518 179.964 103.078C184.103 104.36 187.379 105.866 189.598 107.491C191.839 109.132 192.83 110.759 192.83 112.27Z" stroke="white" stroke-opacity="0.05" stroke-width="2"/>
<path d="M149.405 106.94L174.15 112.173L149.405 117.6M149.405 106.94L141.707 112.173L149.405 117.6M149.405 106.94L158.203 112.27L149.405 117.6" stroke="white" stroke-opacity="0.48" stroke-linecap="round" stroke-linejoin="round"/>
<path d="M144.024 117.6L120.85 112.367L144.024 106.94L136.814 112.27L144.024 117.6Z" stroke="white" stroke-opacity="0.48" stroke-linecap="round" stroke-linejoin="round"/>
<path d="M85 86L87.1213 95.8787L97 98L87.1213 100.121L85 110L82.8787 100.121L73 98L82.8787 95.8787L85 86Z" fill="url(#paint14_linear_244_22030)"/>
<path d="M212 86L213.414 92.5858L220 94L213.414 95.4142L212 102L210.586 95.4142L204 94L210.586 92.5858L212 86Z" fill="url(#paint15_linear_244_22030)"/>
<path d="M192 64L194.121 73.8787L204 76L194.121 78.1213L192 88L189.879 78.1213L180 76L189.879 73.8787L192 64Z" fill="url(#paint16_linear_244_22030)"/>
<defs>
<filter id="filter0_f_244_22030" x="-231" y="-191" width="682" height="682" filterUnits="userSpaceOnUse" color-interpolation-filters="sRGB">
<feFlood flood-opacity="0" result="BackgroundImageFix"/>
<feBlend mode="normal" in="SourceGraphic" in2="BackgroundImageFix" result="shape"/>
<feGaussianBlur stdDeviation="128" result="effect1_foregroundBlur_244_22030"/>
</filter>
<linearGradient id="paint0_linear_244_22030" x1="25.1549" y1="144.87" x2="194.845" y2="155.13" gradientUnits="userSpaceOnUse">
<stop offset="0.15" stop-color="#2AABEE"/>
<stop offset="1" stop-color="#0CCFCF"/>
</linearGradient>
<linearGradient id="paint1_linear_244_22030" x1="56.1668" y1="179.082" x2="229.874" y2="219.975" gradientUnits="userSpaceOnUse">
<stop offset="0.15" stop-color="#2AABEE"/>
<stop offset="1" stop-color="#0CCFCF"/>
</linearGradient>
<linearGradient id="paint2_linear_244_22030" x1="231.55" y1="178.28" x2="104.494" y2="121.256" gradientUnits="userSpaceOnUse">
<stop stop-color="#2C41FF"/>
<stop offset="0.593089" stop-color="#2AABEE"/>
<stop offset="1" stop-color="#0CCFCF"/>
</linearGradient>
<linearGradient id="paint3_linear_244_22030" x1="243.44" y1="177.05" x2="138.034" y2="112.84" gradientUnits="userSpaceOnUse">
<stop offset="0.15" stop-color="#2AABEE"/>
<stop offset="1" stop-color="#0CCFCF"/>
</linearGradient>
<linearGradient id="paint4_linear_244_22030" x1="99.6145" y1="146.664" x2="189.036" y2="164.12" gradientUnits="userSpaceOnUse">
<stop offset="0.15" stop-color="#2AABEE"/>
<stop offset="1" stop-color="#0CCFCF"/>
</linearGradient>
<linearGradient id="paint5_linear_244_22030" x1="234.83" y1="166.8" x2="107.774" y2="109.776" gradientUnits="userSpaceOnUse">
<stop stop-color="#2C41FF"/>
<stop offset="0.593089" stop-color="#2AABEE"/>
<stop offset="1" stop-color="#0CCFCF"/>
</linearGradient>
<linearGradient id="paint6_linear_244_22030" x1="246.72" y1="165.57" x2="141.314" y2="101.36" gradientUnits="userSpaceOnUse">
<stop offset="0.15" stop-color="#2AABEE"/>
<stop offset="1" stop-color="#0CCFCF"/>
</linearGradient>
<linearGradient id="paint7_linear_244_22030" x1="102.895" y1="135.184" x2="192.316" y2="152.64" gradientUnits="userSpaceOnUse">
<stop offset="0.15" stop-color="#2AABEE"/>
<stop offset="1" stop-color="#0CCFCF"/>
</linearGradient>
<linearGradient id="paint8_linear_244_22030" x1="231.55" y1="156.96" x2="104.494" y2="99.9359" gradientUnits="userSpaceOnUse">
<stop stop-color="#2C41FF"/>
<stop offset="0.593089" stop-color="#2AABEE"/>
<stop offset="1" stop-color="#0CCFCF"/>
</linearGradient>
<linearGradient id="paint9_linear_244_22030" x1="243.44" y1="155.73" x2="138.034" y2="91.5197" gradientUnits="userSpaceOnUse">
<stop offset="0.15" stop-color="#2AABEE"/>
<stop offset="1" stop-color="#0CCFCF"/>
</linearGradient>
<linearGradient id="paint10_linear_244_22030" x1="99.6145" y1="125.344" x2="189.036" y2="142.8" gradientUnits="userSpaceOnUse">
<stop offset="0.15" stop-color="#2AABEE"/>
<stop offset="1" stop-color="#0CCFCF"/>
</linearGradient>
<linearGradient id="paint11_linear_244_22030" x1="233.19" y1="143.02" x2="106.134" y2="85.9959" gradientUnits="userSpaceOnUse">
<stop stop-color="#2C41FF"/>
<stop offset="0.593089" stop-color="#2AABEE"/>
<stop offset="1" stop-color="#0CCFCF"/>
</linearGradient>
<linearGradient id="paint12_linear_244_22030" x1="245.08" y1="141.79" x2="139.674" y2="77.5797" gradientUnits="userSpaceOnUse">
<stop offset="0.15" stop-color="#2AABEE"/>
<stop offset="1" stop-color="#0CCFCF"/>
</linearGradient>
<linearGradient id="paint13_linear_244_22030" x1="101.254" y1="111.404" x2="190.676" y2="128.86" gradientUnits="userSpaceOnUse">
<stop offset="0.15" stop-color="#2AABEE"/>
<stop offset="1" stop-color="#0CCFCF"/>
</linearGradient>
<linearGradient id="paint14_linear_244_22030" x1="85" y1="86" x2="85" y2="110" gradientUnits="userSpaceOnUse">
<stop stop-color="white"/>
<stop offset="1" stop-color="white" stop-opacity="0.5"/>
</linearGradient>
<linearGradient id="paint15_linear_244_22030" x1="212" y1="86" x2="212" y2="102" gradientUnits="userSpaceOnUse">
<stop stop-color="white"/>
<stop offset="1" stop-color="white" stop-opacity="0.5"/>
</linearGradient>
<linearGradient id="paint16_linear_244_22030" x1="180.022" y1="75.2758" x2="203.978" y2="76.7242" gradientUnits="userSpaceOnUse">
<stop offset="0.15" stop-color="#2AABEE"/>
<stop offset="1" stop-color="#0CCFCF"/>
</linearGradient>
</defs>
</svg>
